src/topics/icons/electron.svg

<svg height="79" preserveAspectRatio="xMidYMid" viewBox="0 0 512 79" width="512" xmlns="http://www.w3.org/2000/svg"><g fill="#47848f"><path d="m107.802122 62.6938776h28.173584c.801437 0 1.479576-.6781388 1.479576-1.4795756 0-.8014367-.678139-1.4795755-1.479576-1.4795755h-26.57071v-17.3233632h23.488261c.801437 0 1.479576-.6781388 1.479576-1.4795755 0-.8014368-.678139-1.4795756-1.479576-1.4795756h-23.488261v-16.9534693h26.262465c.801437 0 1.479576-.6781388 1.479576-1.4795756 0-.8014367-.678139-1.4795755-1.479576-1.4795755h-27.865339c-.863085 0-1.602873.7397878-1.602873 1.6028735v39.9485388c0 .8630857.739788 1.6028735 1.602873 1.6028735zm49.213497-1.6028735c0 .8630857.739787 1.6028735 1.602873 1.6028735h25.707625c.801437 0 1.479575-.6781388 1.479575-1.4795756 0-.8014367-.678138-1.4795755-1.479575-1.4795755h-24.104751v-38.8388571c0-.8630857-.739788-1.6028735-1.602874-1.6028735s-1.602873.7397878-1.602873 1.6028735zm49.275145 1.6028735h28.173583c.801437 0 1.479576-.6781388 1.479576-1.4795756 0-.8014367-.678139-1.4795755-1.479576-1.4795755h-26.57071v-17.3233632h23.488261c.801437 0 1.479576-.6781388 1.479576-1.4795755 0-.8014368-.678139-1.4795756-1.479576-1.4795756h-23.488261v-16.9534693h26.262466c.801436 0 1.479575-.6781388 1.479575-1.4795756 0-.8014367-.678139-1.4795755-1.479575-1.4795755h-27.865339c-.863086 0-1.602874.7397878-1.602874 1.6028735v39.9485388c0 .8630857.739788 1.6028735 1.602874 1.6028735zm68.756223.7397877c7.21293 0 11.959902-2.6509061 16.336979-6.7197388.246596-.2465959.493192-.6164898.493192-1.1096816 0-.8014367-.739788-1.5412245-1.541224-1.5412245-.493192 0-.863086.2465959-1.109682.4931918-4.068833 3.8838858-8.199314 5.9799511-14.055967 5.9799511-10.29538 0-18.248098-8.5075592-18.248098-19.4194286v-.123298c0-10.8502204 7.82942-19.2961306 18.186449-19.2961306 6.0416 0 10.172081 2.3426612 13.747722 5.6100572.246596.2465959.678139.4315428 1.109682.4315428.863085 0 1.664522-.7397877 1.664522-1.6028734 0-.5548409-.308245-.9863837-.61649-1.2946286-4.19213-3.5756408-8.692506-6.0416-15.843787-6.0416-12.453094 0-21.577143 10.1104326-21.577143 22.3169306v.123298c0 12.3914449 9.124049 22.1936326 21.453845 22.1936326zm47.425675-2.0960653c0 .8630857.739788 1.6028735 1.602874 1.6028735.863085 0 1.602873-.7397878 1.602873-1.6028735v-38.8388571h13.809372c.801436 0 1.479575-.6781388 1.479575-1.4795756 0-.8014367-.678139-1.4795755-1.479575-1.4795755h-30.82449c-.801437 0-1.479576.6781388-1.479576 1.4795755 0 .8014368.678139 1.4795756 1.479576 1.4795756h13.809371zm37.500191 0c0 .8630857.739787 1.6028735 1.602873 1.6028735s1.602873-.7397878 1.602873-1.6028735v-16.5219265h14.117617l13.25453 17.2617143c.369894.4931918.801437.8630857 1.417927.8630857.863086 0 1.664522-.8014368 1.664522-1.6645225 0-.3698939-.184947-.7397877-.493191-1.1096816l-12.268147-15.9054367c7.274579-.9863837 12.63804-5.1168654 12.63804-12.329796v-.1232979c0-3.082449-1.232979-5.979951-3.267396-8.0143674-2.589257-2.5892571-6.843036-4.2537796-12.144848-4.2537796h-16.521927c-.863086 0-1.602873.7397878-1.602873 1.6028735zm3.205746-19.4194286v-19.4194285h14.734107c7.82942 0 12.391444 3.6372898 12.391444 9.4322938v.123298c0 6.2265469-5.363461 9.8638367-12.576391 9.8638367zm70.605692 21.5154939c13.069584 0 21.76209-10.5419755 21.76209-22.3169306v-.123298c0-11.7749551-8.569208-22.1936326-21.638792-22.1936326-13.069583 0-21.76209 10.5419755-21.76209 22.3169306v.123298c0 11.7749551 8.569209 22.1936326 21.638792 22.1936326zm.123298-2.897502c-10.665273 0-18.433045-8.7541551-18.433045-19.4194286v-.123298c0-10.6652734 7.644474-19.2961306 18.309747-19.2961306 10.665274 0 18.433045 8.7541551 18.433045 19.4194286v.123298c0 10.6652734-7.644473 19.2961306-18.309747 19.2961306zm42.062215.8630857c0 .8630857.678139 1.5412245 1.541225 1.5412245.863085 0 1.541224-.6781388 1.541224-1.5412245v-37.1743347l29.653159 37.6058775c.493192.6164898.986384 1.0480327 1.602874 1.0480327h.246596c.739787 0 1.294628-.6164898 1.294628-1.3562776v-40.6883265c0-.8630857-.678139-1.5412245-1.541224-1.5412245-.863086 0-1.541225.6781388-1.541225 1.5412245v36.372898l-29.098318-36.9277388c-.431543-.5548408-.924735-.9247347-1.602874-.9247347h-.493192c-.863085 0-1.602873.7397878-1.602873 1.6028735z"/><path d="m25.5094119 16.8060461c-10.189902-1.8559214-18.24665381.0865501-21.45769265 5.6482325-2.39614909 4.150252-1.71122931 9.6527946 1.66106724 15.5346747.28703222.5006348.92556252.673794 1.42619732.3867618.5006348-.2870323.67379393-.9255626.38676172-1.4261974-3.03780332-5.2984649-3.62891548-10.0473713-1.66420992-13.4503412 2.66742366-4.6201133 9.85390669-6.3527642 19.27341489-4.6371572.5677413.1034047 1.1118127-.2730146 1.2152173-.8407559s-.2730146-1.1118126-.8407559-1.2152173zm-14.4975373 28.332292c4.120228 4.5278253 9.4730923 8.7746977 15.5777329 12.2992137 14.7814211 8.5340573 30.5172879 10.8151077 38.2725759 5.52711.4767917-.3251038.5997589-.9751682.2746557-1.4519599-.3251039-.4767916-.9751688-.5997594-1.4519605-.2746556-6.9408909 4.7326955-21.8888251 2.5658629-36.0503731-5.6103111-5.9221877-3.4191762-11.1055187-7.5315441-15.0769909-11.8958978-.3883945-.4268167-1.0492537-.4579641-1.4760703-.0695696-.4268167.3883944-.4579641 1.0492535-.0695697 1.4760703z"/><path d="m62.388258 43.8671979c6.6721013-7.882046 9.0017682-15.8096113 5.7973415-21.3598414-2.3578776-4.083964-7.342498-6.2401256-13.9669797-6.3262776-.5770323-.0075044-1.050893.4541893-1.0583975 1.0312217-.0075045.5770325.4541895 1.0508932 1.0312218 1.0583975 5.9578859.0774829 10.2522389 1.9350605 12.1843388 5.2815564 2.6616597 4.6101294.5841152 11.6797535-5.5825794 18.9647401-.3728484.4404621-.3180367 1.0997805.1224254 1.4726288s1.0997807.3180365 1.4726291-.1224255zm-17.1472223-26.7132136c-6.0326793 1.2925279-12.4539223 3.8196804-18.6207836 7.3801194-15.2590261 8.8098028-25.21283488 21.8001728-23.83041715 31.2193683.08379819.5709646.61458832.9658911 1.18555293.8820929s.96589101-.6145886.88209282-1.1855532c-1.22744114-8.3632519 8.2077943-20.6768498 22.8076694-29.1060916 5.9823454-3.4539088 12.1998234-5.9008673 18.0136974-7.1465152.564275-.1208984.9237028-.6763412.8028044-1.2406162s-.6763412-.9237028-1.2406162-.8028044z"/><path d="m20.5208313 62.28374c3.4884858 9.7411072 9.1956458 15.7386469 15.6131504 15.7386469 4.6804062 0 9.0106995-3.1904893 12.387437-8.8075823.2973254-.4945909.1374099-1.1365663-.3571812-1.4338915-.494591-.2973252-1.1365661-.1374098-1.4338915.3571811-3.0346688 5.0480729-6.7622543 7.7944968-10.5963643 7.7944968-5.3308604 0-10.4211436-5.3492762-13.6457118-14.3534304-.1945641-.5432932-.7927157-.825994-1.3360089-.6314298s-.8259939.792716-.6314297 1.3360092zm31.8647627-1.9054692c1.8059222-5.771044 2.7758467-12.4284742 2.7758467-19.3659041 0-17.3108647-6.0587224-32.23348085-14.6885713-36.06539611-.5274246-.23419248-1.1448371.00351901-1.3790296.53094348-.2341925.52742452.003519 1.14483707.5309435 1.37902958 7.696782 3.41760515 13.4468614 17.58003475 13.4468614 34.15542305 0 6.7304366-.9392969 13.1776433-2.6804757 18.7417923-.1723437.5507454.1344114 1.1369248.6851567 1.3092681.5507453.1723439 1.1369249-.1344109 1.3092683-.6851563z"/><path d="m72.0650486 59.3545791c0-2.7620096-2.2390518-5.0010614-5.0010614-5.0010614-2.7620101 0-5.0010619 2.2390518-5.0010619 5.0010614 0 2.7620101 2.2390518 5.0010613 5.0010619 5.0010613 2.7620096 0 5.0010614-2.2390512 5.0010614-5.0010613zm-2.089796 0c0 1.6078477-1.3034182 2.9112654-2.9112654 2.9112654-1.6078477 0-2.911266-1.3034177-2.911266-2.9112654 0-1.6078472 1.3034183-2.9112655 2.911266-2.9112655 1.6078472 0 2.9112654 1.3034183 2.9112654 2.9112655z"/><path d="m5.13204726 64.3556404c2.76200996 0 5.00106144-2.2390512 5.00106144-5.0010613 0-2.7620096-2.23905148-5.0010614-5.00106144-5.0010614-2.76200998 0-5.00106144 2.2390518-5.00106144 5.0010614 0 2.7620101 2.23905146 5.0010613 5.00106144 5.0010613zm0-2.0897959c-1.60784756 0-2.91126552-1.3034177-2.91126552-2.9112654 0-1.6078472 1.30341796-2.9112655 2.91126552-2.9112655 1.60784754 0 2.91126548 1.3034183 2.91126548 2.9112655 0 1.6078477-1.30341794 2.9112654-2.91126548 2.9112654z"/><path d="m36.1339817 10.0483057c2.7620099 0 5.0010614-2.23905146 5.0010614-5.00106137 0-2.76200998-2.2390515-5.00106145-5.0010614-5.00106145-2.76201 0-5.0010614 2.23905147-5.0010614 5.00106145 0 2.76200991 2.2390514 5.00106137 5.0010614 5.00106137zm0-2.08979588c-1.6078476 0-2.9112655-1.30341799-2.9112655-2.91126549 0-1.60784757 1.3034179-2.91126553 2.9112655-2.91126553 1.6078475 0 2.9112655 1.30341796 2.9112655 2.91126553 0 1.6078475-1.303418 2.91126549-2.9112655 2.91126549z"/><path d="m36.8978565 44.5490574c-1.9533567.4220572-3.8778054-.8193361-4.3006885-2.7726928-.4212313-1.9533567.8193361-3.8778053 2.7726928-4.3006885 1.9533566-.4220572 3.8778053.8193361 4.3006885 2.7726928.4220571 1.9533566-.8193361 3.8778053-2.7726928 4.3006885z"/></g></svg>

<?xml version="1.0" encoding="UTF-8" standalone="no"?>
<svg width="512px" height="79px" viewBox="0 0 512 79" version="1.1" xmlns="http://www.w3.org/2000/svg" xmlns:xlink="http://www.w3.org/1999/xlink" preserveAspectRatio="xMidYMid">
	<g fill="#47848F">
		<path d="M107.802122,62.6938776 L135.975706,62.6938776 C136.777143,62.6938776 137.455282,62.0157388 137.455282,61.214302 C137.455282,60.4128653 136.777143,59.7347265 135.975706,59.7347265 L109.404996,59.7347265 L109.404996,42.4113633 L132.893257,42.4113633 C133.694694,42.4113633 134.372833,41.7332245 134.372833,40.9317878 C134.372833,40.130351 133.694694,39.4522122 132.893257,39.4522122 L109.404996,39.4522122 L109.404996,22.4987429 L135.667461,22.4987429 C136.468898,22.4987429 137.147037,21.8206041 137.147037,21.0191673 C137.147037,20.2177306 136.468898,19.5395918 135.667461,19.5395918 L107.802122,19.5395918 C106.939037,19.5395918 106.199249,20.2793796 106.199249,21.1424653 L106.199249,61.0910041 C106.199249,61.9540898 106.939037,62.6938776 107.802122,62.6938776 L107.802122,62.6938776 L107.802122,62.6938776 Z M157.015619,61.0910041 C157.015619,61.9540898 157.755406,62.6938776 158.618492,62.6938776 L184.326117,62.6938776 C185.127554,62.6938776 185.805692,62.0157388 185.805692,61.214302 C185.805692,60.4128653 185.127554,59.7347265 184.326117,59.7347265 L160.221366,59.7347265 L160.221366,20.8958694 C160.221366,20.0327837 159.481578,19.2929959 158.618492,19.2929959 C157.755406,19.2929959 157.015619,20.0327837 157.015619,20.8958694 L157.015619,61.0910041 L157.015619,61.0910041 Z M206.290764,62.6938776 L234.464347,62.6938776 C235.265784,62.6938776 235.943923,62.0157388 235.943923,61.214302 C235.943923,60.4128653 235.265784,59.7347265 234.464347,59.7347265 L207.893637,59.7347265 L207.893637,42.4113633 L231.381898,42.4113633 C232.183335,42.4113633 232.861474,41.7332245 232.861474,40.9317878 C232.861474,40.130351 232.183335,39.4522122 231.381898,39.4522122 L207.893637,39.4522122 L207.893637,22.4987429 L234.156103,22.4987429 C234.957539,22.4987429 235.635678,21.8206041 235.635678,21.0191673 C235.635678,20.2177306 234.957539,19.5395918 234.156103,19.5395918 L206.290764,19.5395918 C205.427678,19.5395918 204.68789,20.2793796 204.68789,21.1424653 L204.68789,61.0910041 C204.68789,61.9540898 205.427678,62.6938776 206.290764,62.6938776 L206.290764,62.6938776 L206.290764,62.6938776 Z M275.046987,63.4336653 C282.259917,63.4336653 287.006889,60.7827592 291.383966,56.7139265 C291.630562,56.4673306 291.877158,56.0974367 291.877158,55.6042449 C291.877158,54.8028082 291.13737,54.0630204 290.335934,54.0630204 C289.842742,54.0630204 289.472848,54.3096163 289.226252,54.5562122 C285.157419,58.440098 281.026938,60.5361633 275.170285,60.5361633 C264.874905,60.5361633 256.922187,52.0286041 256.922187,41.1167347 L256.922187,40.9934367 C256.922187,30.1432163 264.751607,21.6973061 275.108636,21.6973061 C281.150236,21.6973061 285.280717,24.0399673 288.856358,27.3073633 C289.102954,27.5539592 289.534497,27.7389061 289.96604,27.7389061 C290.829125,27.7389061 291.630562,26.9991184 291.630562,26.1360327 C291.630562,25.5811918 291.322317,25.149649 291.014072,24.8414041 C286.821942,21.2657633 282.321566,18.7998041 275.170285,18.7998041 C262.717191,18.7998041 253.593142,28.9102367 253.593142,41.1167347 L253.593142,41.2400327 C253.593142,53.6314776 262.717191,63.4336653 275.046987,63.4336653 L275.046987,63.4336653 L275.046987,63.4336653 Z M322.472662,61.3376 C322.472662,62.2006857 323.21245,62.9404735 324.075536,62.9404735 C324.938621,62.9404735 325.678409,62.2006857 325.678409,61.3376 L325.678409,22.4987429 L339.487781,22.4987429 C340.289217,22.4987429 340.967356,21.8206041 340.967356,21.0191673 C340.967356,20.2177306 340.289217,19.5395918 339.487781,19.5395918 L308.663291,19.5395918 C307.861854,19.5395918 307.183715,20.2177306 307.183715,21.0191673 C307.183715,21.8206041 307.861854,22.4987429 308.663291,22.4987429 L322.472662,22.4987429 L322.472662,61.3376 L322.472662,61.3376 Z M359.972853,61.3376 C359.972853,62.2006857 360.71264,62.9404735 361.575726,62.9404735 C362.438812,62.9404735 363.178599,62.2006857 363.178599,61.3376 L363.178599,44.8156735 L377.296216,44.8156735 L390.550746,62.0773878 C390.92064,62.5705796 391.352183,62.9404735 391.968673,62.9404735 C392.831759,62.9404735 393.633195,62.1390367 393.633195,61.275951 C393.633195,60.9060571 393.448248,60.5361633 393.140004,60.1662694 L380.871857,44.2608327 C388.146436,43.274449 393.509897,39.1439673 393.509897,31.9310367 L393.509897,31.8077388 C393.509897,28.7252898 392.276918,25.8277878 390.242501,23.7933714 C387.653244,21.2041143 383.399465,19.5395918 378.097653,19.5395918 L361.575726,19.5395918 C360.71264,19.5395918 359.972853,20.2793796 359.972853,21.1424653 L359.972853,61.3376 L359.972853,61.3376 Z M363.178599,41.9181714 L363.178599,22.4987429 L377.912706,22.4987429 C385.742126,22.4987429 390.30415,26.1360327 390.30415,31.9310367 L390.30415,32.0543347 C390.30415,38.2808816 384.940689,41.9181714 377.727759,41.9181714 L363.178599,41.9181714 L363.178599,41.9181714 Z M433.784291,63.4336653 C446.853875,63.4336653 455.546381,52.8916898 455.546381,41.1167347 L455.546381,40.9934367 C455.546381,29.2184816 446.977173,18.7998041 433.907589,18.7998041 C420.838006,18.7998041 412.145499,29.3417796 412.145499,41.1167347 L412.145499,41.2400327 C412.145499,53.0149878 420.714708,63.4336653 433.784291,63.4336653 L433.784291,63.4336653 L433.784291,63.4336653 Z M433.907589,60.5361633 C423.242316,60.5361633 415.474544,51.7820082 415.474544,41.1167347 L415.474544,40.9934367 C415.474544,30.3281633 423.119018,21.6973061 433.784291,21.6973061 C444.449565,21.6973061 452.217336,30.4514612 452.217336,41.1167347 L452.217336,41.2400327 C452.217336,51.9053061 444.572863,60.5361633 433.907589,60.5361633 L433.907589,60.5361633 L433.907589,60.5361633 Z M475.969804,61.399249 C475.969804,62.2623347 476.647943,62.9404735 477.511029,62.9404735 C478.374114,62.9404735 479.052253,62.2623347 479.052253,61.399249 L479.052253,24.2249143 L508.705412,61.8307918 C509.198604,62.4472816 509.691796,62.8788245 510.308286,62.8788245 L510.554882,62.8788245 C511.294669,62.8788245 511.84951,62.2623347 511.84951,61.5225469 L511.84951,20.8342204 C511.84951,19.9711347 511.171371,19.2929959 510.308286,19.2929959 C509.4452,19.2929959 508.767061,19.9711347 508.767061,20.8342204 L508.767061,57.2071184 L479.668743,20.2793796 C479.2372,19.7245388 478.744008,19.3546449 478.065869,19.3546449 L477.572677,19.3546449 C476.709592,19.3546449 475.969804,20.0944327 475.969804,20.9575184 L475.969804,61.399249 L475.969804,61.399249 Z"></path>
		<g>
			<path d="M25.5094119,16.8060461 C15.3195099,14.9501247 7.26275809,16.8925962 4.05171925,22.4542786 C1.65557016,26.6045306 2.34048994,32.1070732 5.71278649,37.9889533 C5.99981871,38.4895881 6.63834901,38.6627473 7.13898381,38.3757151 C7.63961861,38.0886828 7.81277774,37.4501525 7.52574553,36.9495177 C4.48794221,31.6510528 3.89683005,26.9021464 5.86153561,23.4991765 C8.52895927,18.8790632 15.7154423,17.1464123 25.1349505,18.8620193 C25.7026918,18.965424 26.2467632,18.5890047 26.3501678,18.0212634 C26.4535724,17.4535221 26.0771532,16.9094508 25.5094119,16.8060461 L25.5094119,16.8060461 L25.5094119,16.8060461 Z M11.0118746,45.1383381 C15.1321026,49.6661634 20.4849669,53.9130358 26.5896075,57.4375518 C41.3710286,65.9716091 57.1068954,68.2526595 64.8621834,62.9646618 C65.3389751,62.639558 65.4619423,61.9894936 65.1368391,61.5127019 C64.8117352,61.0359103 64.1616703,60.9129425 63.6848786,61.2380463 C56.7439877,65.9707418 41.7960535,63.8039092 27.6345055,55.6277352 C21.7123178,52.208559 16.5289868,48.0961911 12.5575146,43.7318374 C12.1691201,43.3050207 11.5082609,43.2738733 11.0814443,43.6622678 C10.6546276,44.0506622 10.6234802,44.7115213 11.0118746,45.1383381 L11.0118746,45.1383381 L11.0118746,45.1383381 Z"></path>
			<path d="M62.388258,43.8671979 C69.0603593,35.9851519 71.3900262,28.0575866 68.1855995,22.5073565 C65.8277219,18.4233925 60.8431015,16.2672309 54.2186198,16.1810789 C53.6415875,16.1735745 53.1677268,16.6352682 53.1602223,17.2123006 C53.1527178,17.7893331 53.6144118,18.2631938 54.1914441,18.2706981 C60.14933,18.348181 64.443683,20.2057586 66.3757829,23.5522545 C69.0374426,28.1623839 66.9598981,35.232008 60.7932035,42.5169946 C60.4203551,42.9574567 60.4751668,43.6167751 60.9156289,43.9896234 C61.356091,44.3624717 62.0154096,44.3076599 62.388258,43.8671979 L62.388258,43.8671979 L62.388258,43.8671979 Z M45.2410357,17.1539843 C39.2083564,18.4465122 32.7871134,20.9736647 26.6202521,24.5341037 C11.361226,33.3439065 1.40741722,46.3342765 2.78983495,55.753472 C2.87363314,56.3244366 3.40442327,56.7193631 3.97538788,56.6355649 C4.54635249,56.5517667 4.94127889,56.0209763 4.8574807,55.4500117 C3.63003956,47.0867598 13.065275,34.7731619 27.6651501,26.3439201 C33.6474955,22.8900113 39.8649735,20.4430528 45.6788475,19.1974049 C46.2431225,19.0765065 46.6025503,18.5210637 46.4816519,17.9567887 C46.3607535,17.3925137 45.8053107,17.0330859 45.2410357,17.1539843 L45.2410357,17.1539843 L45.2410357,17.1539843 Z"></path>
			<path d="M20.5208313,62.28374 C24.0093171,72.0248472 29.7164771,78.0223869 36.1339817,78.0223869 C40.8143879,78.0223869 45.1446812,74.8318976 48.5214187,69.2148046 C48.8187441,68.7202137 48.6588286,68.0782383 48.1642375,67.7809131 C47.6696465,67.4835879 47.0276714,67.6435033 46.730346,68.1380942 C43.6956772,73.1861671 39.9680917,75.932591 36.1339817,75.932591 C30.8031213,75.932591 25.7128381,70.5833148 22.4882699,61.5791606 C22.2937058,61.0358674 21.6955542,60.7531666 21.152261,60.9477308 C20.6089678,61.142295 20.3262671,61.7404468 20.5208313,62.28374 L20.5208313,62.28374 L20.5208313,62.28374 Z M52.385594,60.3782708 C54.1915162,54.6072268 55.1614407,47.9497966 55.1614407,41.0123667 C55.1614407,23.701502 49.1027183,8.77888585 40.4728694,4.94697059 C39.9454448,4.71277811 39.3280323,4.9504896 39.0938398,5.47791407 C38.8596473,6.00533859 39.0973588,6.62275114 39.6247833,6.85694365 C47.3215653,10.2745488 53.0716447,24.4369784 53.0716447,41.0123667 C53.0716447,47.7428033 52.1323478,54.19001 50.391169,59.754159 C50.2188253,60.3049044 50.5255804,60.8910838 51.0763257,61.0634271 C51.627071,61.235771 52.2132506,60.9290162 52.385594,60.3782708 L52.385594,60.3782708 L52.385594,60.3782708 Z"></path>
			<path d="M72.0650486,59.3545791 C72.0650486,56.5925695 69.8259968,54.3535177 67.0639872,54.3535177 C64.3019771,54.3535177 62.0629253,56.5925695 62.0629253,59.3545791 C62.0629253,62.1165892 64.3019771,64.3556404 67.0639872,64.3556404 C69.8259968,64.3556404 72.0650486,62.1165892 72.0650486,59.3545791 L72.0650486,59.3545791 L72.0650486,59.3545791 Z M69.9752526,59.3545791 C69.9752526,60.9624268 68.6718344,62.2658445 67.0639872,62.2658445 C65.4561395,62.2658445 64.1527212,60.9624268 64.1527212,59.3545791 C64.1527212,57.7467319 65.4561395,56.4433136 67.0639872,56.4433136 C68.6718344,56.4433136 69.9752526,57.7467319 69.9752526,59.3545791 L69.9752526,59.3545791 L69.9752526,59.3545791 Z"></path>
			<path d="M5.13204726,64.3556404 C7.89405722,64.3556404 10.1331087,62.1165892 10.1331087,59.3545791 C10.1331087,56.5925695 7.89405722,54.3535177 5.13204726,54.3535177 C2.37003728,54.3535177 0.130985816,56.5925695 0.130985816,59.3545791 C0.130985816,62.1165892 2.37003728,64.3556404 5.13204726,64.3556404 L5.13204726,64.3556404 L5.13204726,64.3556404 Z M5.13204726,62.2658445 C3.5241997,62.2658445 2.22078174,60.9624268 2.22078174,59.3545791 C2.22078174,57.7467319 3.5241997,56.4433136 5.13204726,56.4433136 C6.7398948,56.4433136 8.04331274,57.7467319 8.04331274,59.3545791 C8.04331274,60.9624268 6.7398948,62.2658445 5.13204726,62.2658445 L5.13204726,62.2658445 L5.13204726,62.2658445 Z"></path>
			<path d="M36.1339817,10.0483057 C38.8959916,10.0483057 41.1350431,7.80925424 41.1350431,5.04724433 C41.1350431,2.28523435 38.8959916,0.0461828812 36.1339817,0.0461828812 C33.3719717,0.0461828812 31.1329203,2.28523435 31.1329203,5.04724433 C31.1329203,7.80925424 33.3719717,10.0483057 36.1339817,10.0483057 L36.1339817,10.0483057 L36.1339817,10.0483057 Z M36.1339817,7.95850982 C34.5261341,7.95850982 33.2227162,6.65509183 33.2227162,5.04724433 C33.2227162,3.43939676 34.5261341,2.1359788 36.1339817,2.1359788 C37.7418292,2.1359788 39.0452472,3.43939676 39.0452472,5.04724433 C39.0452472,6.65509183 37.7418292,7.95850982 36.1339817,7.95850982 L36.1339817,7.95850982 L36.1339817,7.95850982 Z"></path>
			<path d="M36.8978565,44.5490574 C34.9444998,44.9711146 33.0200511,43.7297213 32.597168,41.7763646 C32.1759367,39.8230079 33.4165041,37.8985593 35.3698608,37.4756761 C37.3232174,37.0536189 39.2476661,38.2950122 39.6705493,40.2483689 C40.0926064,42.2017255 38.8512132,44.1261742 36.8978565,44.5490574 L36.8978565,44.5490574 Z"></path>
		</g>
	</g>
</svg>
